dist.prod/images/frequency_culture_title.svg

<?xml version="1.0" encoding="UTF-8"?>
<svg viewBox="0 0 1213 72" version="1.1" xmlns="http://www.w3.org/2000/svg" xmlns:xlink="http://www.w3.org/1999/xlink">
    <!-- Generator: Sketch 41.1 (35376) - http://www.bohemiancoding.com/sketch -->
    <title>Combined Shape</title>
    <desc>Created with Sketch.</desc>
    <defs>
        <linearGradient x1="0%" y1="0%" x2="101.999998%" y2="100.999999%" id="linearGradient-1">
            <stop stop-color="#3023AE" offset="0%"></stop>
            <stop stop-color="#C96DD8" offset="100%"></stop>
        </linearGradient>
    </defs>
    <g id="Page-1" stroke="none" stroke-width="1" fill="none" fill-rule="evenodd">
        <path d="M5.78081041e-14,7.21864668 C5.78081041e-14,3.74300198 2.67357285,1.06942914 6.14921754,1.06942914 L45.9854529,1.06942914 C48.9263831,1.06942914 51.5999559,3.4756447 51.5999559,6.68393211 C51.5999559,9.62486224 49.1937404,12.2984351 45.9854529,12.2984351 L12.0310778,12.2984351 L12.0310778,31.013445 L41.7077364,31.013445 C44.6486665,31.013445 47.3222394,33.4196606 47.3222394,36.627948 C47.3222394,39.5688781 44.9160238,42.242451 41.7077364,42.242451 L12.0310778,42.242451 L12.0310778,64.7004629 C12.0310778,67.9087503 9.35750496,70.5823231 6.14921754,70.5823231 C2.67357285,70.5823231 5.68434189e-14,67.9087503 5.68434189e-14,64.7004629 C5.78081041e-14,64.7004629 5.78081041e-14,7.21864668 5.78081041e-14,7.21864668 Z M69.512894,7.21864668 C69.512894,3.74300198 72.1864668,1.06942914 75.6621115,1.06942914 L100.258982,1.06942914 C108.814415,1.06942914 115.498347,3.74300198 120.043421,8.02071854 C123.786423,11.7637205 125.657924,16.8435089 125.657924,22.7253692 L125.657924,22.9927265 C125.657924,33.9543751 119.241349,40.6383073 110.151201,43.5792374 L123.251708,60.155389 C124.321137,61.4921754 125.123209,62.8289619 125.123209,64.7004629 C125.123209,67.9087503 122.182279,70.3149658 119.241349,70.3149658 C116.567776,70.3149658 114.696275,68.9781794 113.359489,67.1066784 L96.783337,45.9854529 L81.5439718,45.9854529 L81.5439718,64.4331056 C81.5439718,67.641393 78.8703989,70.3149658 75.6621115,70.3149658 C72.1864668,70.3149658 69.512894,67.641393 69.512894,64.4331056 C69.512894,64.4331056 69.512894,7.21864668 69.512894,7.21864668 Z M99.1895526,35.0238043 C107.744986,35.0238043 113.359489,30.4787304 113.359489,23.527441 L113.359489,23.2600838 C113.359489,16.0414371 108.012343,12.0310778 99.1895526,12.0310778 L81.5439718,12.0310778 L81.5439718,35.0238043 L99.1895526,35.0238043 Z M145.70972,63.6310337 L145.70972,7.21864668 C145.70972,3.74300198 148.383293,1.06942914 151.858938,1.06942914 L191.695173,1.06942914 C194.636103,1.06942914 197.042319,3.4756447 197.042319,6.41657483 C197.042319,9.35750496 194.636103,11.7637205 191.695173,11.7637205 L157.740798,11.7637205 L157.740798,29.6766586 L187.150099,29.6766586 C190.091029,29.6766586 192.497245,32.0828741 192.497245,35.2911616 C192.497245,38.2320917 190.091029,40.6383073 187.150099,40.6383073 L157.740798,40.6383073 L157.740798,59.0859599 L192.229888,59.0859599 C195.170818,59.0859599 197.577033,61.4921754 197.577033,64.4331056 C197.577033,67.3740357 195.170818,69.7802513 192.229888,69.7802513 L151.59158,69.7802513 C148.383293,69.512894 145.70972,67.1066784 145.70972,63.6310337 Z M213.61847,35.5585188 C213.61847,16.0414371 228.590478,0 249.444346,0 C270.298215,0 285.270223,16.0414371 285.270223,35.2911616 L285.270223,35.5585188 C285.270223,43.3118801 282.59665,50.5305268 278.318933,56.6797443 L282.59665,60.4227463 C283.933436,61.4921754 284.735508,63.0963192 284.735508,65.2351774 C284.735508,68.4434648 282.061935,71.1170377 279.121005,71.1170377 C277.249504,71.1170377 275.912718,70.3149658 274.843289,69.2455367 L270.030857,64.9678201 C264.148997,68.9781794 257.197708,71.384395 249.176989,71.384395 C228.323121,70.8496804 213.61847,54.8082433 213.61847,35.5585188 Z M250.513776,44.6486665 C250.513776,41.4403791 253.187348,38.7668063 256.128279,38.7668063 C257.99978,38.7668063 259.069209,39.3015208 260.405995,40.6383073 L269.228786,48.6590258 C271.367644,44.9160238 272.437073,40.6383073 272.437073,35.5585188 L272.437073,35.2911616 C272.437073,21.9232973 262.812211,10.9616487 249.176989,10.9616487 C235.541768,10.9616487 226.184263,21.9232973 226.184263,35.0238043 L226.184263,35.2911616 C226.184263,48.6590258 235.809125,59.6206745 249.444346,59.6206745 C253.98942,59.6206745 257.99978,58.5512453 261.208067,56.412387 L252.652634,49.1937404 C251.583205,48.1243112 250.513776,46.5201675 250.513776,44.6486665 Z M303.985233,40.6383073 L303.985233,6.68393211 C303.985233,3.4756447 306.658805,0.802071854 310.13445,0.802071854 C313.342737,0.802071854 316.01631,3.4756447 316.01631,6.68393211 L316.01631,40.1035927 C316.01631,52.9367423 322.700242,59.6206745 333.394534,59.6206745 C344.088825,59.6206745 350.5054,53.2040996 350.5054,40.6383073 L350.5054,6.68393211 C350.5054,3.4756447 353.178973,0.802071854 356.654618,0.802071854 C359.862905,0.802071854 362.536478,3.4756447 362.536478,6.68393211 L362.536478,40.1035927 C362.536478,60.6901036 351.040115,70.8496804 333.127177,70.8496804 C315.481596,70.8496804 303.985233,60.4227463 303.985233,40.6383073 Z M384.727132,63.6310337 L384.727132,7.21864668 C384.727132,3.74300198 387.400705,1.06942914 390.87635,1.06942914 L430.712585,1.06942914 C433.653516,1.06942914 436.059731,3.4756447 436.059731,6.41657483 C436.059731,9.35750496 433.653516,11.7637205 430.712585,11.7637205 L396.75821,11.7637205 L396.75821,29.6766586 L426.167512,29.6766586 C429.108442,29.6766586 431.514657,32.0828741 431.514657,35.2911616 C431.514657,38.2320917 429.108442,40.6383073 426.167512,40.6383073 L396.75821,40.6383073 L396.75821,59.0859599 L431.2473,59.0859599 C434.18823,59.0859599 436.594446,61.4921754 436.594446,64.4331056 C436.594446,67.3740357 434.18823,69.7802513 431.2473,69.7802513 L390.87635,69.7802513 C387.400705,69.512894 384.727132,67.1066784 384.727132,63.6310337 Z M455.576813,6.68393211 C455.576813,3.4756447 458.250386,0.534714569 461.72603,0.534714569 L463.062817,0.534714569 C466.003747,0.534714569 467.607891,1.87150099 469.212034,4.01035927 L503.433767,48.3916685 L503.433767,6.41657483 C503.433767,3.20828741 506.10734,0.534714569 509.315627,0.534714569 C512.523914,0.534714569 515.197487,3.20828741 515.197487,6.41657483 L515.197487,63.898391 C515.197487,67.1066784 512.523914,69.7802513 509.315627,69.7802513 L508.780912,69.7802513 C505.839982,69.7802513 504.235839,68.4434648 502.631695,66.0372493 L467.340533,20.3191536 L467.340533,63.898391 C467.340533,67.1066784 464.666961,69.7802513 461.458673,69.7802513 C458.250386,69.7802513 455.576813,67.1066784 455.576813,63.898391 L455.576813,6.68393211 Z M535.249284,35.5585188 C535.249284,15.7740798 549.953934,0 570.540445,0 C581.234737,0 588.186026,3.20828741 594.067886,7.75336125 C595.404673,8.82279039 596.474102,10.4269341 596.474102,12.5657924 C596.474102,15.7740798 593.800529,18.4476526 590.592242,18.4476526 C588.988098,18.4476526 587.651311,17.9129381 586.84924,17.3782235 C582.036808,13.6352215 576.95702,11.229006 570.540445,11.229006 C557.439938,11.229006 547.815076,21.9232973 547.815076,35.2911616 L547.815076,35.5585188 C547.815076,48.9263831 557.439938,59.8880317 570.540445,59.8880317 C577.759092,59.8880317 582.571523,57.4818162 587.651311,53.2040996 C588.453383,52.4020278 589.79017,51.8673132 591.394313,51.8673132 C594.335244,51.8673132 597.008816,54.540886 597.008816,57.4818162 C597.008816,59.3533172 596.206745,60.6901036 595.137315,61.7595327 C588.720741,67.3740357 581.234737,70.8496804 570.273088,70.8496804 C550.221292,70.8496804 535.249284,55.3429579 535.249284,35.5585188 Z M634.438836,43.0445228 L610.911395,10.6942914 C610.109323,9.62486224 609.574609,8.02071854 609.574609,6.41657483 C609.574609,3.20828741 612.248182,0.534714569 615.723826,0.534714569 C618.397399,0.534714569 620.001543,1.87150099 621.605687,4.27771655 L640.588054,31.8155169 L659.837778,4.27771655 C661.174565,2.13885828 663.046066,0.534714569 665.719639,0.534714569 C669.195283,0.534714569 671.601499,3.20828741 671.601499,6.41657483 C671.601499,8.02071854 670.799427,9.62486224 669.997355,10.6942914 L646.469914,42.7771655 L646.469914,64.1657483 C646.469914,67.3740357 643.796341,70.0476086 640.320696,70.0476086 C637.112409,70.0476086 634.438836,67.3740357 634.438836,64.1657483 L634.438836,43.0445228 Z M720.527882,35.5585188 C720.527882,15.7740798 735.232533,0 755.819043,0 C766.513335,0 773.464624,3.20828741 779.346484,7.75336125 C780.683271,8.82279039 781.7527,10.4269341 781.7527,12.5657924 C781.7527,15.7740798 779.079127,18.4476526 775.87084,18.4476526 C774.266696,18.4476526 772.92991,17.9129381 772.127838,17.3782235 C767.315407,13.6352215 762.235618,11.229006 755.819043,11.229006 C742.718536,11.229006 733.093674,21.9232973 733.093674,35.2911616 L733.093674,35.5585188 C733.093674,48.9263831 742.718536,59.8880317 755.819043,59.8880317 C763.03769,59.8880317 767.850121,57.4818162 772.92991,53.2040996 C773.731981,52.4020278 775.068768,51.8673132 776.672912,51.8673132 C779.613842,51.8673132 782.287415,54.540886 782.287415,57.4818162 C782.287415,59.3533172 781.485343,60.6901036 780.415914,61.7595327 C773.999339,67.3740357 766.513335,70.8496804 755.551686,70.8496804 C735.232533,70.8496804 720.527882,55.3429579 720.527882,35.5585188 Z M799.932995,40.6383073 L799.932995,6.68393211 C799.932995,3.4756447 802.606568,0.802071854 806.082213,0.802071854 C809.2905,0.802071854 811.964073,3.4756447 811.964073,6.68393211 L811.964073,40.1035927 C811.964073,52.9367423 818.648005,59.6206745 829.342297,59.6206745 C840.036588,59.6206745 846.453163,53.2040996 846.453163,40.6383073 L846.453163,6.68393211 C846.453163,3.4756447 849.126736,0.802071854 852.60238,0.802071854 C855.810668,0.802071854 858.484241,3.4756447 858.484241,6.68393211 L858.484241,40.1035927 C858.484241,60.6901036 846.987877,70.8496804 829.074939,70.8496804 C811.429359,70.8496804 799.932995,60.4227463 799.932995,40.6383073 Z M880.674895,6.68393211 C880.674895,3.4756447 883.348468,0.802071854 886.824113,0.802071854 C890.0324,0.802071854 892.705973,3.4756447 892.705973,6.68393211 L892.705973,58.8186026 L923.719418,58.8186026 C926.660348,58.8186026 929.333921,61.2248182 929.333921,64.4331056 C929.333921,67.3740357 926.927706,70.0476086 923.719418,70.0476086 L886.824113,70.0476086 C883.348468,70.0476086 880.674895,67.3740357 880.674895,63.898391 L880.674895,6.68393211 Z M953.663434,12.2984351 L937.087282,12.2984351 C933.878995,12.2984351 931.472779,9.62486224 931.472779,6.68393211 C931.472779,3.74300198 933.878995,1.06942914 937.087282,1.06942914 L982.538021,1.06942914 C985.478951,1.06942914 988.152524,3.74300198 988.152524,6.68393211 C988.152524,9.62486224 985.746308,12.2984351 982.538021,12.2984351 L965.694512,12.2984351 L965.694512,64.1657483 C965.694512,67.3740357 963.020939,70.0476086 959.545294,70.0476086 C956.06965,70.0476086 953.396077,67.3740357 953.396077,64.1657483 L953.663434,12.2984351 Z M1004.46132,40.6383073 L1004.46132,6.68393211 C1004.46132,3.4756447 1007.13489,0.802071854 1010.61054,0.802071854 C1013.81882,0.802071854 1016.4924,3.4756447 1016.4924,6.68393211 L1016.4924,40.1035927 C1016.4924,52.9367423 1023.17633,59.6206745 1033.87062,59.6206745 C1044.56491,59.6206745 1050.98149,53.2040996 1050.98149,40.6383073 L1050.98149,6.68393211 C1050.98149,3.4756447 1053.65506,0.802071854 1057.1307,0.802071854 C1060.33899,0.802071854 1063.01256,3.4756447 1063.01256,6.68393211 L1063.01256,40.1035927 C1063.01256,60.6901036 1051.5162,70.8496804 1033.60326,70.8496804 C1015.95768,70.8496804 1004.46132,60.4227463 1004.46132,40.6383073 Z M1084.93586,7.21864668 C1084.93586,3.74300198 1087.60943,1.06942914 1091.08508,1.06942914 L1115.68195,1.06942914 C1124.23738,1.06942914 1130.92131,3.74300198 1135.46639,8.02071854 C1139.20939,11.7637205 1141.08089,16.8435089 1141.08089,22.7253692 L1141.08089,22.9927265 C1141.08089,33.9543751 1134.66432,40.6383073 1125.57417,43.5792374 L1138.67467,60.155389 C1139.7441,61.4921754 1140.54618,62.8289619 1140.54618,64.7004629 C1140.54618,67.9087503 1137.60525,70.3149658 1134.66432,70.3149658 C1131.99074,70.3149658 1130.11924,68.9781794 1128.78246,67.1066784 L1112.2063,45.9854529 L1096.96694,45.9854529 L1096.96694,64.4331056 C1096.96694,67.641393 1094.29337,70.3149658 1091.08508,70.3149658 C1087.60943,70.3149658 1084.93586,67.641393 1084.93586,64.4331056 L1084.93586,7.21864668 Z M1114.61252,35.0238043 C1123.16795,35.0238043 1128.78246,30.4787304 1128.78246,23.527441 L1128.78246,23.2600838 C1128.78246,16.0414371 1123.43531,12.0310778 1114.61252,12.0310778 L1096.96694,12.0310778 L1096.96694,35.0238043 L1114.61252,35.0238043 Z M1161.13269,63.6310337 L1161.13269,7.21864668 C1161.13269,3.74300198 1163.80626,1.06942914 1167.2819,1.06942914 L1207.11814,1.06942914 C1210.05907,1.06942914 1212.46529,3.4756447 1212.46529,6.41657483 C1212.46529,9.35750496 1210.05907,11.7637205 1207.11814,11.7637205 L1173.16376,11.7637205 L1173.16376,29.6766586 L1202.57307,29.6766586 C1205.514,29.6766586 1207.92021,32.0828741 1207.92021,35.2911616 C1207.92021,38.2320917 1205.514,40.6383073 1202.57307,40.6383073 L1173.16376,40.6383073 L1173.16376,59.0859599 L1207.65285,59.0859599 C1210.59378,59.0859599 1213,61.4921754 1213,64.4331056 C1213,67.3740357 1210.59378,69.7802513 1207.65285,69.7802513 L1167.2819,69.7802513 C1163.80626,69.512894 1161.13269,67.1066784 1161.13269,63.6310337 Z" id="Combined-Shape" fill="url(#linearGradient-1)"></path>
    </g>
</svg>

<svg viewBox="0 0 1213 72" xmlns="http://www.w3.org/2000/svg"><title>Combined Shape</title><defs><linearGradient x1="0%" y1="0%" x2="102%" y2="101%" id="a"><stop stop-color="#3023AE" offset="0%"/><stop stop-color="#C96DD8" offset="100%"/></linearGradient></defs><path d="M0 7.219c0-3.476 2.674-6.15 6.15-6.15h39.835c2.941 0 5.615 2.407 5.615 5.615 0 2.94-2.406 5.614-5.615 5.614H12.031v18.715h29.677c2.94 0 5.614 2.407 5.614 5.615 0 2.94-2.406 5.614-5.614 5.614H12.03V64.7c0 3.209-2.673 5.882-5.882 5.882C2.674 70.582 0 67.91 0 64.7V7.22zm69.513 0c0-3.476 2.673-6.15 6.15-6.15h24.596c8.555 0 15.24 2.674 19.784 6.952 3.743 3.743 5.615 8.823 5.615 14.704v.268c0 10.961-6.417 17.645-15.507 20.586l13.1 16.576c1.07 1.337 1.872 2.674 1.872 4.545 0 3.209-2.94 5.615-5.882 5.615-2.673 0-4.545-1.337-5.882-3.208L96.783 45.985H81.544v18.448c0 3.208-2.674 5.882-5.882 5.882-3.476 0-6.15-2.674-6.15-5.882V7.22zM99.19 35.024c8.555 0 14.17-4.545 14.17-11.497v-.267c0-7.219-5.348-11.229-14.17-11.229H81.544v22.993H99.19zm46.52 28.607V7.219c0-3.476 2.673-6.15 6.149-6.15h39.836c2.941 0 5.347 2.407 5.347 5.348 0 2.94-2.406 5.347-5.347 5.347h-33.954v17.913h29.41c2.94 0 5.346 2.406 5.346 5.614 0 2.941-2.406 5.347-5.347 5.347h-29.41v18.448h34.49c2.94 0 5.347 2.406 5.347 5.347 0 2.941-2.406 5.347-5.347 5.347h-40.638c-3.209-.267-5.882-2.673-5.882-6.149zm67.908-28.072C213.618 16.04 228.59 0 249.444 0s35.826 16.041 35.826 35.291v.268c0 7.753-2.673 14.972-6.951 21.12l4.278 3.744c1.336 1.07 2.139 2.673 2.139 4.812 0 3.208-2.674 5.882-5.615 5.882-1.871 0-3.208-.802-4.278-1.871l-4.812-4.278c-5.882 4.01-12.833 6.416-20.854 6.416-20.854-.534-35.559-16.576-35.559-35.825zm36.896 9.09c0-3.209 2.673-5.882 5.614-5.882 1.872 0 2.941.535 4.278 1.871l8.823 8.021c2.139-3.743 3.208-8.02 3.208-13.1v-.268c0-13.368-9.625-24.33-23.26-24.33-13.635 0-22.993 10.962-22.993 24.063v.267c0 13.368 9.625 24.33 23.26 24.33 4.545 0 8.556-1.07 11.764-3.209l-8.555-7.218c-1.07-1.07-2.14-2.674-2.14-4.545zm53.471-4.01V6.683c0-3.208 2.674-5.882 6.15-5.882 3.208 0 5.881 2.674 5.881 5.882v33.42c0 12.833 6.684 19.517 17.379 19.517 10.694 0 17.11-6.417 17.11-18.983V6.684c0-3.208 2.674-5.882 6.15-5.882 3.208 0 5.881 2.674 5.881 5.882v33.42c0 20.586-11.496 30.746-29.409 30.746-17.645 0-29.142-10.427-29.142-30.212zm80.742 22.992V7.219c0-3.476 2.674-6.15 6.15-6.15h39.836c2.94 0 5.347 2.407 5.347 5.348 0 2.94-2.406 5.347-5.347 5.347h-33.955v17.913h29.41c2.94 0 5.347 2.406 5.347 5.614 0 2.941-2.407 5.347-5.347 5.347h-29.41v18.448h34.49c2.94 0 5.346 2.406 5.346 5.347 0 2.941-2.406 5.347-5.347 5.347h-40.37c-3.476-.267-6.15-2.673-6.15-6.149zm70.85-56.947c0-3.208 2.673-6.15 6.149-6.15h1.337c2.94 0 4.545 1.338 6.149 3.476l34.222 44.382V6.417c0-3.209 2.673-5.882 5.882-5.882 3.208 0 5.881 2.673 5.881 5.882v57.481c0 3.209-2.673 5.882-5.881 5.882h-.535c-2.941 0-4.545-1.337-6.15-3.743l-35.29-45.718V63.9c0 3.208-2.674 5.881-5.882 5.881-3.209 0-5.882-2.673-5.882-5.882V6.684zm79.672 28.875C535.25 15.774 549.954 0 570.54 0c10.695 0 17.646 3.208 23.528 7.753 1.337 1.07 2.406 2.674 2.406 4.813 0 3.208-2.673 5.882-5.882 5.882-1.604 0-2.94-.535-3.743-1.07-4.812-3.743-9.892-6.149-16.309-6.149-13.1 0-22.725 10.694-22.725 24.062v.268c0 13.367 9.625 24.329 22.725 24.329 7.22 0 12.032-2.406 17.111-6.684.802-.802 2.14-1.337 3.743-1.337 2.941 0 5.615 2.674 5.615 5.615 0 1.871-.802 3.208-1.872 4.278-6.416 5.614-13.902 9.09-24.864 9.09-20.052 0-35.024-15.507-35.024-35.291zm99.19 7.486l-23.528-32.35c-.802-1.07-1.336-2.674-1.336-4.278 0-3.209 2.673-5.882 6.149-5.882 2.673 0 4.278 1.337 5.882 3.743l18.982 27.538 19.25-27.538c1.337-2.14 3.208-3.743 5.882-3.743 3.475 0 5.881 2.673 5.881 5.882 0 1.604-.802 3.208-1.604 4.277L646.47 42.777v21.389c0 3.208-2.674 5.882-6.15 5.882-3.208 0-5.881-2.674-5.881-5.882V43.045zm86.089-7.486C720.528 15.774 735.233 0 755.819 0c10.694 0 17.646 3.208 23.527 7.753 1.337 1.07 2.407 2.674 2.407 4.813 0 3.208-2.674 5.882-5.882 5.882-1.604 0-2.941-.535-3.743-1.07-4.813-3.743-9.892-6.149-16.309-6.149-13.1 0-22.725 10.694-22.725 24.062v.268c0 13.367 9.625 24.329 22.725 24.329 7.219 0 12.031-2.406 17.11-6.684.803-.802 2.14-1.337 3.744-1.337 2.94 0 5.614 2.674 5.614 5.615 0 1.871-.802 3.208-1.871 4.278-6.417 5.614-13.903 9.09-24.864 9.09-20.32 0-35.024-15.507-35.024-35.291zm79.405 5.08V6.683c0-3.208 2.674-5.882 6.15-5.882 3.207 0 5.881 2.674 5.881 5.882v33.42c0 12.833 6.684 19.517 17.378 19.517 10.695 0 17.111-6.417 17.111-18.983V6.684c0-3.208 2.674-5.882 6.15-5.882 3.208 0 5.881 2.674 5.881 5.882v33.42c0 20.586-11.496 30.746-29.41 30.746-17.645 0-29.141-10.427-29.141-30.212zm80.742-33.955c0-3.208 2.673-5.882 6.15-5.882 3.207 0 5.881 2.674 5.881 5.882v52.135h31.013c2.941 0 5.615 2.406 5.615 5.614 0 2.941-2.406 5.615-5.615 5.615h-36.895c-3.476 0-6.15-2.674-6.15-6.15V6.684zm72.988 5.614h-16.576c-3.208 0-5.614-2.673-5.614-5.614s2.406-5.615 5.614-5.615h45.451c2.941 0 5.615 2.674 5.615 5.615 0 2.94-2.407 5.614-5.615 5.614h-16.843v51.868c0 3.208-2.674 5.882-6.15 5.882-3.475 0-6.149-2.674-6.149-5.882l.267-51.868zm50.798 28.34V6.684c0-3.208 2.674-5.882 6.15-5.882 3.208 0 5.881 2.674 5.881 5.882v33.42c0 12.833 6.684 19.517 17.379 19.517 10.694 0 17.11-6.417 17.11-18.983V6.684c0-3.208 2.674-5.882 6.15-5.882 3.208 0 5.882 2.674 5.882 5.882v33.42c0 20.586-11.497 30.746-29.41 30.746-17.645 0-29.142-10.427-29.142-30.212zm80.475-33.42c0-3.475 2.673-6.149 6.15-6.149h24.596c8.555 0 15.24 2.674 19.784 6.952 3.743 3.743 5.615 8.823 5.615 14.704v.268c0 10.961-6.417 17.645-15.507 20.586l13.1 16.576c1.07 1.337 1.872 2.674 1.872 4.545 0 3.209-2.94 5.615-5.882 5.615-2.673 0-4.545-1.337-5.882-3.208l-16.576-21.122h-15.24v18.448c0 3.208-2.673 5.882-5.88 5.882-3.477 0-6.15-2.674-6.15-5.882V7.22zm29.677 27.806c8.555 0 14.17-4.545 14.17-11.497v-.267c0-7.219-5.348-11.229-14.17-11.229h-17.646v22.993h17.646zm46.52 28.607V7.219c0-3.476 2.673-6.15 6.149-6.15h39.836c2.941 0 5.347 2.407 5.347 5.348 0 2.94-2.406 5.347-5.347 5.347h-33.954v17.913h29.41c2.94 0 5.346 2.406 5.346 5.614 0 2.941-2.406 5.347-5.347 5.347h-29.41v18.448h34.49c2.94 0 5.347 2.406 5.347 5.347 0 2.941-2.406 5.347-5.347 5.347h-40.371c-3.476-.267-6.15-2.673-6.15-6.149z" fill="url(#a)" fill-rule="evenodd"/></svg>
